X:14
T:Rob Roy. ET.14
M:C
L:1/8
Q:1/4=120
S:Eliza Tennyson MS, Lincolnshire,1822
R:reel
O:England;Lincolnshire;Somersby
Z:vmp.R.Greig 2011 <http://www.village-music-project.org.uk>
K:G
GDGB d2Bd|egfe dBBd|cAAc BGGB|AcEA FDEF|!
GDGB d2Bd|egfe dBBd cAAc BGGB|AcEFG2G2||!
AFAdc2Ac|efga f2df|adbd adbd|afdfe2AB|!
AFAdc2Ac|efga f2df|gaba bagf|fedc dcBA|]

